libs/shared/images/icons-sharp-light/circle-waveform-lines.svg

<svg xmlns="http://www.w3.org/2000/svg" viewBox="0 0 512 512"><defs><style>.fa-secondary{opacity:.4}</style></defs><path class="fa-secondary" d="M0 256a256 256 0 1 0 512 0A256 256 0 1 0 0 256zm128-96l32 0 0 16 0 160 0 16-32 0 0-16 0-160 0-16zm64 40l32 0 0 16 0 80 0 16-32 0 0-16 0-80 0-16zm64-72l32 0 0 16 0 224 0 16-32 0 0-16 0-224 0-16zm64 56l32 0 0 16 0 112 0 16-32 0 0-16 0-112 0-16zm64 40l32 0 0 16 0 32 0 16-32 0 0-16 0-32 0-16z"/><path class="fa-primary" d="M288 128l0 16 0 224 0 16-32 0 0-16 0-224 0-16 32 0zM160 160l0 16 0 160 0 16-32 0 0-16 0-160 0-16 32 0zm192 24l0 16 0 112 0 16-32 0 0-16 0-112 0-16 32 0zM224 200l0 16 0 80 0 16-32 0 0-16 0-80 0-16 32 0zm192 24l0 16 0 32 0 16-32 0 0-16 0-32 0-16 32 0z"/></svg>

<svg xmlns="http://www.w3.org/2000/svg" viewBox="0 0 512 512"><path d="M480 256A224 224 0 1 0 32 256a224 224 0 1 0 448 0zM0 256a256 256 0 1 1 512 0A256 256 0 1 1 0 256zM288 144V368v16H256V368 144 128h32v16zM160 176V336v16H128V336 176 160h32v16zm192 24V312v16H320V312 200 184h32v16zM224 216v80 16H192V296 216 200h32v16zm192 24v32 16H384V272 240 224h32v16z"/></svg>
